X:136
M:4/4
L:1/8
K:G
efge dBAB | G2E2 E2DE | G2E2 E2 :|| d2 | efge d2g2 | efge dBAG | 
f2ed dcAG | A2g2 g2fg | a2g2 g2e2 | fefa g2e2 | f2ed dcAG | 
|: A2B2 d2f2 | A2B2 d2f2 | e2B2 B2AB | e2B2 B4 | A2B2 d2f2 | A2B2 d2f2 | e2B2 c2Ac | e2d2 d4 :| 
|: a2f2 d2f2 | a2f2 f4 | e2B2 B2AB | e2B2 B4 | a2f2 d2f2 | a2f2 f4 | e2B2 c2Ac | e2d2 d4 :|| 

